components/2.0/icon/icons/icon-lock-locked-18px.svg

<?xml version="1.0" encoding="UTF-8" standalone="no"?>
<svg width="18px" height="18px" viewBox="0 0 18 18" version="1.1" xmlns="http://www.w3.org/2000/svg" xmlns:xlink="http://www.w3.org/1999/xlink" xmlns:sketch="http://www.bohemiancoding.com/sketch/ns">
    <!-- Generator: Sketch 3.4.4 (17249) - http://www.bohemiancoding.com/sketch -->
    <title>icon-lock-locked-18px</title>
    <desc>Created with Sketch.</desc>
    <defs></defs>
    <g id="18px" stroke="none" stroke-width="1" fill="none" fill-rule="evenodd" sketch:type="MSPage">
        <g id="icon-lock-locked-18px" sketch:type="MSArtboardGroup" fill="#3D4752">
            <path d="M3,8 L15,8 L15,16 L3,16 L3,8 L3,8 Z M10,14 L8,14 L8,10 L10,10 L10,14 L10,14 Z M7,5.8 C7,5.3592 7.448,5 8,5 L10,5 C10.552,5 11,5.3592 11,5.8 L11,8 L7,8 L7,5.8 L7,5.8 Z M13,8 L13,5.66666667 C13,4.19377778 11.657,3 10,3 L8,3 C6.343,3 5,4.19377778 5,5.66666667 L5,8 L13,8 L13,8 Z" id="Fill-1" sketch:type="MSShapeGroup"></path>
        </g>
    </g>
</svg>

<svg width="18" height="18" xmlns="http://www.w3.org/2000/svg"><path d="M3 8h12v8H3V8zm7 6H8v-4h2v4zM7 5.8c0-.4.4-.8 1-.8h2c.6 0 1 .4 1 .8V8H7V5.8zM13 8V5.7C13 4.2 11.7 3 10 3H8C6.3 3 5 4.2 5 5.7V8h8z" fill="#3D4752" fill-rule="evenodd"/></svg>
